files/resources/svgs/general/s-envelope.svg

<svg width="24" height="24" viewBox="0 0 24 24" fill="none" xmlns="http://www.w3.org/2000/svg">
<path d="M1.5 8.6691V17.25C1.5 18.9069 2.84315 20.25 4.5 20.25H19.5C21.1569 20.25 22.5 18.9069 22.5 17.25V8.6691L13.5723 14.1631C12.6081 14.7564 11.3919 14.7564 10.4277 14.1631L1.5 8.6691Z" fill="#0F172A"/>
<path d="M22.5 6.90783V6.75C22.5 5.09315 21.1569 3.75 19.5 3.75H4.5C2.84315 3.75 1.5 5.09315 1.5 6.75V6.90783L11.2139 12.8856C11.696 13.1823 12.304 13.1823 12.7861 12.8856L22.5 6.90783Z" fill="#0F172A"/>
</svg>

<svg xmlns="http://www.w3.org/2000/svg" viewBox="0 0 24 24" fill="currentColor" aria-hidden="true">
  <path d="M1.5 8.67v8.58a3 3 0 003 3h15a3 3 0 003-3V8.67l-8.928 5.493a3 3 0 01-3.144 0L1.5 8.67z"/>
  <path d="M22.5 6.908V6.75a3 3 0 00-3-3h-15a3 3 0 00-3 3v.158l9.714 5.978a1.5 1.5 0 001.572 0L22.5 6.908z"/>
</svg>
